assets/images/ywc18/icon/messenger.svg

<svg width="64" height="65" fill="none" xmlns="http://www.w3.org/2000/svg"><path d="M2.4209 29.5695c0 8.5614 4.27094 16.1996 10.9492 21.1881v10.3761l10.0063-5.4905c2.6694.7372 5.4979 1.1388 8.4292 1.1388 16.2291 0 29.3872-12.181 29.3872-27.2101.0025-15.0291-13.1556-27.21252-29.3847-27.21252S2.4209 14.5404 2.4209 29.5695zm26.2868-7.6211l7.6652 7.9811 14.4169-7.9811-16.065 17.0495-7.4815-7.9787-14.603 7.9811 16.0674-17.0519z" stroke="#FF5D29" stroke-width="4.39365"/></svg>

<svg width="64" height="65" viewBox="0 0 64 65" fill="none" xmlns="http://www.w3.org/2000/svg">
<path d="M2.4209 29.5695C2.4209 38.1309 6.69184 45.7691 13.3701 50.7576V61.1337L23.3764 55.6432C26.0458 56.3804 28.8743 56.782 31.8056 56.782C48.0347 56.782 61.1928 44.601 61.1928 29.5719C61.1953 14.5428 48.0372 2.35938 31.8081 2.35938C15.579 2.35938 2.4209 14.5404 2.4209 29.5695ZM28.7077 21.9484L36.3729 29.9295L50.7898 21.9484L34.7248 38.9979L27.2433 31.0192L12.6403 39.0003L28.7077 21.9484Z" stroke="#FF5D29" stroke-opacity="1" stroke-width="4.39365"/>
</svg>
